X:1
T:Title
%%score [ ( 1 2 ) ( 3 4 ) ]
L:1/8
Q:1/4=120
M:3/4
K:C
V:1 treble nm=" " snm=" "
V:2 treble 
V:3 bass nm="Midi_74"
V:4 bass 
V:1
[K:Bb]"^Robert Bridges\n1844-1930" B2 | (B2 A2) G2 |"^Rejoice, O land, in God thy might" F4 B2 | %3
w: Re-|joice, * O|land, in|
w: |||
w: He|shall * for-|give thy|
 (c2 B2) A2 | B4"^William Knapp\n1698-1768" c2 | (d2 c2) B2 | (A2 B2) c2 | (B2 A2) G2 | F4 F2 | %9
w: God * thy|might, his|will * o-|bey, * him|serve * a|right; for|
w: ||||||
w: sins * un-|told: re-|mem * ber|thou * his|love * of|old; walk|
 (G2 F2) GA | B4 A2 | B4 c2 | d4 cd | (e2 d2) c2 | (B2 A2) B2 | (c2 B2) A2 | B4 |] %17
w: thee * the *|Saints up-|lift their|voice: fear *|not, * O|land, * in|God * re-|joice.|
w: ||||||||
w: in * his *|way, his|word a-|dore, and *|keep * his|truth * for|ev * er-|more.|
V:2
[K:Bb] D2 | E4 E2 | F4 D2 | (G2 F2) F2 | F4 F2 | F4 F=E | F4 F2 | F4 =E2 | F4 F2 | (E2 F2) E2 | %10
w: ||||||||||
w: Glad|shalt thou|be, with|bless * ing|crowned, with|joy and *|peace thou|shalt a-|bound; yea|love * with|
 F4 F2 | D4 G2 | ^F4 G=F | (E2 F2) G2 | (G2 ^F2) G2 | (G2 F2) F2 | F4 |] %17
w: |||||||
w: thee shall|make his|home un *|til * thou|see * God's|king * dom|come.|
V:3
[K:Bb] F,2 | F,4 G,A, | B,4 B,2 | (E2 D2) C2 | D4 A,2 | (B,2 C2) DB, | (C2 D2) C2 | (D2 C2) CB, | %8
 A,4 B,2 | B,4 E2 | D4 C2 | (B,2 A,2) G,2 | A,4 G,=B, | %13
"^This edition produced by Andrew Sims 2014" (C2 =B,2) C2 | D4 D2 | (E2 D2) C2 | D4 |] %17
V:4
[K:Bb] B,,2 | C,4 C,2 | D,4 G,2 | (E,2 F,2) F,,2 | B,,4 F,2 | (B,2 A,2) G,2 | (F,2 D,2) A,,2 | %7
 (B,,2 C,2) C,2 | F,4 D,2 | (E,2 D,2) C,2 | (B,,2 D,2) F,2 | (G,2 F,2) E,2 | D,4 E,D, | %13
 (C,2 D,2) E,2 | (G,2 D,2) G,2 | (E,2 F,2) F,2 | B,,4 |] %17

